X: 32560
T: Planxty Hewlett
R: waltz
M: 3/4
K: Dmajor
|:A2|D2 D2 FG|AB c2 A2|d2 f2 fg|fe d2 dB|
A2 F2 FA|G2 GABG|AF D2 D2|D4:|z2|
A2 D2 AB|A2 D2 AB|A2 d2 de|dc BA GF|
G2 GG GA|G2 GG GA|GG GA BG|AF D3D|
FE F2 G2|AB c2 A2|d3 f fg|fe d3B|
A2 F2 F2|G3A BG|AF D2 D2|D4||

